X:53
T:Four Courts (r)
B:NFID.237a
053four_c
S:JMcK
L:1/8
N:1:|~D2| replaces |(3DDD| in 1,2,3,5,6, and 7.
N:2:|BGFG| replaces |BG (3GGG| in mm.3 and 7.
N:3:Use upper note of the double stop as the melody note.
M:C
R:reel
Q:360
K:G
AD~D2 ADBD|AD~D2 G2FG|AD~D2 BGFG|(3Bcd cA G2FG|
AD~D2 ADBD|AD~D2 G2FG|AD~D2 BGFG|(3Bcd cA  G3||
F|E2BE dEBE|B3A GAGF|E2BE dEBE|BcBA GAGF|
E2BE dEBE|BABA GABc|(3ded ^cd dBGA|(3Bcd cA G4||
A2D2 [G2B2][G2B2]|[F2A2][F2A2] GFED|[A4D4] [G2B2][G2B2]|\
[G2B2]b2 [GB]BdB|A4B2B2|ABAF GABc|d^cde dBGA|(3Bcd cA G2FG||

%%%

